X: 012
T: the Rose the Thistle and the Shamrock
%R: jig
B: Thompson's Twenty four Country Dances (for the Year 1804) p.1 #2
S: http://folkopedia.efdss.org/images/2/28/Thompson24_1804.PDF  2014-8-2
Z: 2014 John Chambers <jc:trillian.mit.edu>
N: The "down a Couple" phrase is very fuzzy.
M: 6/8
L: 1/8
K: A
|:\
c/d/ec AGA | c/d/ec AGA | BcB dcd | FBA GFE |\
c/d/ec AGA | c/d/ec AGA | BcB dcd | EFG A3 :|
|:\
efe c2a | f2d d2f | e2A A2c | B2E E2E |\
efe c2a | f2d d2a | g2e efg | a2A A3 :|
% - - - - - - - - - - - - - - - - - - - - - - - - -
%%begintext align
%% Turn your Partner half round with the right hand
%% turn back again with the left lead down a Couple
%% up again & cast off hands 4 round at bottom
%% Right and left at top
%%endtext
% - - - - - - - - - - - - - - - - - - - - - - - - -
